X: 1
T: The Morning Star
R: reel
M: 4/4
L: 1/8
K: Gmaj
~B3 A BGEF|~G2 Bd ef{b}gd|~B3 A BGEF|GB{c}AF ~G3 A:|
(3Bcd ef ~g2 fg|a f dfgf ed|(3Bcd ef g2 fg|{c'}afdf ~e3 d|
(3Bcd ef ~g2 fg|a f dfgf ed|B3 A BGEF|GB{c}AF ~G3 A||
